X: 1265
T: John O'Neill's Reel
M:C|
L:1/8
R:Reel
B:O'Neill's 1265
N:Collected by F. O'Neill
N:
Z:Transcribed by Trish O'Neil
K:D
A | BcBA FAAc | B.(E {F}(3EDE) FEFA | BcBA FAAB | ABde fd d :|
e | f2fde2ec | fgfd edBd | fgfe dedB | ABde fdde |
f2(fd)e2(ec) | fgfd edBd | f>(a {b}(3aga b)gaf | ABde fd d |]


